icons/command-palette-16.svg

<svg xmlns="http://www.w3.org/2000/svg" width="16" height="16" viewBox="0 0 16 16"><path d="M6.354 8.04l-4.773 4.773a.75.75 0 101.061 1.06L7.945 8.57a.75.75 0 000-1.06L2.642 2.206a.75.75 0 00-1.06 1.061L6.353 8.04zM8.75 11.5a.75.75 0 000 1.5h5.5a.75.75 0 000-1.5h-5.5z"/></svg>

<svg xmlns="http://www.w3.org/2000/svg" width="16" height="16" viewBox="0 0 16 16">
  <defs/>
  <path d="M6.354,8.04 L1.581,12.813 A0.75 0.75 0 1 0 2.642,13.873 L7.945,8.57 A0.75 0.75 0 0 0 7.945,7.51 L2.642,2.206 A0.75 0.75 0 0 0 1.582,3.267 L6.353,8.04 Z M8.75,11.5 A0.75 0.75 0 0 0 8.75,13 L14.25,13 A0.75 0.75 0 0 0 14.25,11.5 L8.75,11.5 Z"/>
</svg>
